packages/sources/assets/src/assets/flag-caf.svg

<svg width="28" height="20" viewBox="0 0 28 20" fill="none" xmlns="http://www.w3.org/2000/svg">
<rect width="28" height="20" rx="2" fill="white"/>
<mask id="mask0_503_3816" style="mask-type:alpha" maskUnits="userSpaceOnUse" x="0" y="0" width="28" height="20">
<rect width="28" height="20" rx="2" fill="white"/>
</mask>
<g mask="url(#mask0_503_3816)">
<rect width="28" height="20" fill="#19BFBF"/>
<path fill-rule="evenodd" clip-rule="evenodd" d="M8.0282 5.50254C8.0105 5.39636 8.04518 5.28816 8.1213 5.21204L10.569 2.7643C10.6315 2.70179 10.7163 2.66667 10.8047 2.66667H12.4607C12.5869 2.66667 12.7023 2.73801 12.7588 2.85093L13.2412 3.81574C13.2977 3.92867 13.4131 4.00001 13.5393 4.00001H15.794C15.9202 4.00001 16.0357 4.07134 16.0921 4.18427L17.9079 7.81574C17.9643 7.92867 18.0798 8.00001 18.206 8.00001H19.3333C19.608 8.00001 19.7648 8.31359 19.6 8.53334L18.018 10.6426C18.006 10.6586 17.9955 10.6757 17.9866 10.6936L17.3685 11.9296C17.3454 11.9759 17.3333 12.0269 17.3333 12.0787V13.2546C17.3333 13.3064 17.3213 13.3574 17.2981 13.4037L16.6667 14.6667L16 16L15.4255 17.1491C15.369 17.262 15.2536 17.3333 15.1273 17.3333H14.206C14.0798 17.3333 13.9643 17.262 13.9079 17.1491L13.3685 16.0704C13.3454 16.0241 13.3333 15.9731 13.3333 15.9213V12.1381C13.3333 12.0497 13.2982 11.9649 13.2357 11.9024L12.7223 11.389C12.6857 11.3524 12.6581 11.3078 12.6418 11.2587L12.076 9.56126C12.0306 9.42515 11.9032 9.33334 11.7597 9.33334H8.94904C8.7861 9.33334 8.64703 9.21553 8.62024 9.0548L8.0282 5.50254Z" fill="white"/>
<path fill-rule="evenodd" clip-rule="evenodd" d="M18.6667 13.6667C18.6667 13.4826 18.8159 13.3333 19 13.3333H19.6667C19.8508 13.3333 20 13.4826 20 13.6667V14.588C20 14.6397 19.9879 14.6908 19.9648 14.737L19.4255 15.8157C19.369 15.9287 19.2536 16 19.1273 16H19C18.8159 16 18.6667 15.8508 18.6667 15.6667V13.6667Z" fill="white"/>
</g>
</svg>

<svg width="28" height="20" fill="none" xmlns="http://www.w3.org/2000/svg"><rect width="28" height="20" rx="2" fill="#fff"/><mask id="a" style="mask-type:alpha" maskUnits="userSpaceOnUse" x="0" y="0" width="28" height="20"><rect width="28" height="20" rx="2" fill="#fff"/></mask><g mask="url(#a)"><path fill="#19BFBF" d="M0 0h28v20H0z"/><path fill-rule="evenodd" clip-rule="evenodd" d="M8.028 5.503a.333.333 0 0 1 .093-.291l2.448-2.448a.333.333 0 0 1 .236-.097h1.656c.126 0 .241.071.298.184l.482.965A.333.333 0 0 0 13.54 4h2.255c.126 0 .242.071.298.184l1.816 3.632a.333.333 0 0 0 .298.184h1.127c.275 0 .432.314.267.533l-1.582 2.11a.33.33 0 0 0-.031.05l-.618 1.237a.334.334 0 0 0-.036.149v1.176a.333.333 0 0 1-.035.149l-.631 1.263L16 16l-.575 1.15a.333.333 0 0 1-.298.183h-.921a.333.333 0 0 1-.298-.184l-.54-1.079a.334.334 0 0 1-.035-.149v-3.783a.333.333 0 0 0-.097-.236l-.514-.513a.332.332 0 0 1-.08-.13l-.566-1.698a.333.333 0 0 0-.316-.228H8.949a.333.333 0 0 1-.329-.278l-.592-3.552Zm10.639 8.164c0-.184.149-.334.333-.334h.667c.184 0 .333.15.333.334v.921a.333.333 0 0 1-.035.149l-.54 1.079a.333.333 0 0 1-.298.184H19a.333.333 0 0 1-.333-.333v-2Z" fill="#fff"/></g></svg>
